X:56
T:12. Gaillarde
C:Tielman Susato
B:Tielman Susato: Danserye (1551) no. 56
R:Galliard
Z:Transcribed by Frank Nordberg - http://www.musicaviva.com
F:http://abc.musicaviva.com/tunes/susato-tielman/susato-1551-56.abc
M:3/2
L:1/2
K:C
V:1
ccc|c2A|cBA|B2G|ccd|e2d|c2B|c2z:|
ddd|e2d|ccc|d2c|BBB|c>B A/G/|c2B|c2z:|
V:2
GGG|G2F|AGF|G2E|GAA|c>BA-|AG2|E2z:|
|:DDD|GAF|AAA|FGE|GGG|E2F|GG2|E2z:|
V:3
EEE|E>DC|A,B,C|D2C|EEF|G2F|ED2|C2z:|
|:GGF|ECD|FFE|D_B,C|EED|CA,D|ED2|C2z:|
V:4
CCC|C2F,|F,G,A,|G,2C,|CA,D|C2F,-|F,G,2|C,2z:|
|:G,G,_B,|CA,_B,|F,F,A,|_B,G,A,|E,E,G,|A,>G,F,|C,G,2|C,2z:|
W:
W:
W:  From Musica Viva - http://www.musicaviva.com
W:  the Internet center for free sheet music downloads.
